X:365
T:Johnnie Lad
R:Reel
B:The Athole Collection
M:C|
L:1/8
K:E Minor
d|B2 BG A2 Ad|B2 Bd efgd|B2 BG A2Ad|BAB^d e2 eB:|
B|efge fddf|efge f2 df|efge afge|dBB^d e2 eB|efge fddf|
efga f2 df|efge afge|dBBd efgd||

